X: 19
T: Brother Good's Waltz
C: Armand Aromin
H: 12/31/04
M: 3/4
L: 1/8
R: Waltz
K: Gmaj
D2 || G3 D GA | B3 A G2 | F D4-D|-D3 E F2 |
G3 F E2 | D3 E FD | E6 | E4 D2 :|
G3 A B2 | c3 B A2 | G6 | G4 D2 | 
G3 A B2 | c3 B A2 | G6 | G4 D2 |
G3 A B2 | A3 B c2 | B3 c d2 | c4 d2 |
B3 A G2 | F3 G AB | A G4-G | G4 D2 |]
